svg/LeftHanded/nesw-resize.svg

<?xml version="1.0" encoding="UTF-8" standalone="no"?>
<!-- Created with Inkscape (http://www.inkscape.org/) -->

<svg
   xmlns:dc="http://purl.org/dc/elements/1.1/"
   xmlns:cc="http://creativecommons.org/ns#"
   xmlns:rdf="http://www.w3.org/1999/02/22-rdf-syntax-ns#"
   xmlns:svg="http://www.w3.org/2000/svg"
   xmlns="http://www.w3.org/2000/svg"
   xmlns:xlink="http://www.w3.org/1999/xlink"
   version="1.0"
   width="500"
   height="500"
   viewBox="0 0 1000 1000"
   id="page"
   xml:space="preserve"><metadata
     id="metadata11"><rdf:RDF><cc:Work
         rdf:about=""><dc:format>image/svg+xml</dc:format><dc:type
           rdf:resource="http://purl.org/dc/dcmitype/StillImage" /><dc:title></dc:title></cc:Work></rdf:RDF></metadata><defs
     id="defs38"><linearGradient
       id="linearGradient2218"><stop
         id="stop2220"
         style="stop-color:#999999;stop-opacity:1"
         offset="0" /><stop
         id="stop2222"
         style="stop-color:#555555;stop-opacity:1"
         offset="1" /></linearGradient><linearGradient
       x1="272.83774"
       y1="199.51422"
       x2="272.83774"
       y2="655.90527"
       id="linearGradient3885"
       xlink:href="#linearGradient2218"
       gradientUnits="userSpaceOnUse"
       gradientTransform="translate(1.262634e-6,1.711134e-5)" /><filter
       x="-0.24057096"
       y="-0.23943175"
       width="1.4811419"
       height="1.4788635"
       color-interpolation-filters="sRGB"
       id="filter3800"><feGaussianBlur
         stdDeviation="43.535778"
         id="feGaussianBlur3802" /></filter><filter
       x="-0.24057095"
       y="-0.23943175"
       width="1.4811419"
       height="1.4788635"
       color-interpolation-filters="sRGB"
       id="filter3802"><feGaussianBlur
         id="feGaussianBlur3804"
         stdDeviation="43.535779" /></filter></defs><path
     d="m 1278.8725,309.41384 c 9.0001,9.00005 -16.8341,216.00203 -34.8165,215.99991 -18.0015,-2e-5 -55.1826,-18.00012 -73.1842,-18.00012 -18.0008,-7e-4 -54.001,35.99952 -72.0004,53.99892 -17.9994,18.00082 -53.9996,54.00104 -53.9989,72.00044 0,18.00152 17.9994,53.90912 18.0008,71.90498 -7e-4,18.03192 -206.13576,44.24368 -214.00233,37.09552 -11.00046,-10.0006 17.19825,-217.00116 35.19836,-217.00116 16.21396,0 52.80037,18.00082 70.80119,18.0001 18.00083,-7e-4 58.50038,-40.50024 72.00048,-54.00032 9,-9.00005 54.0003,-54.00033 53.9989,-72.00044 7e-4,-18.00082 -18.0001,-53.39645 -18.0008,-72.71391 0,-18.49862 205.9526,-45.33473 216.0034,-35.28392 z"
     transform="matrix(1.2,0,0,1.2,-776.27119,-82.79871)"
     id="path3870-7"
     style="opacity:0.15;fill:#000000;fill-opacity:1;stroke:none;filter:url(#filter3802)" /><path
     d="m 715.31318,211.69987 c 9.00006,9.00005 -16.83409,216.00203 -34.81652,215.99991 -18.00153,-10e-6 -55.18262,-18.00012 -73.18414,-18.00011 -18.00081,-7.1e-4 -54.00103,35.99951 -72.00044,53.99891 -17.9994,18.00082 -53.99962,54.00104 -53.99891,72.00044 -1e-5,18.00153 17.99941,53.90912 18.00081,71.90498 -7e-4,18.03193 -206.13576,44.24368 -214.00233,37.09553 -11.00046,-10.00061 17.19825,-217.00117 35.19836,-217.00117 16.21396,0 52.80037,18.00082 70.80119,18.00011 18.00083,-7.1e-4 58.50036,-40.50025 72.00044,-54.00033 9.00005,-9.00005 54.00033,-54.00033 53.99892,-72.00044 7.1e-4,-18.00082 -18.0001,-53.39645 -18.00082,-72.71391 0.004,-18.49862 205.95262,-45.33473 216.00344,-35.28392 z"
     id="path3870"
     style="opacity:0.75;fill:url(#linearGradient3885);fill-opacity:1;stroke:#000000;stroke-width:20;stroke-linecap:round;stroke-linejoin:round;stroke-miterlimit:1;stroke-dasharray:none" /></svg>

<?xml version="1.0" encoding="UTF-8" standalone="no"?>
<!-- Created with Inkscape (http://www.inkscape.org/) -->
<svg
   xmlns:svg="http://www.w3.org/2000/svg"
   xmlns="http://www.w3.org/2000/svg"
   xmlns:xlink="http://www.w3.org/1999/xlink"
   version="1.0"
   width="500"
   height="500"
   viewBox="0 0 1000 1000"
   id="page"
   xml:space="preserve"><defs
     id="defs38"><linearGradient
       id="linearGradient2218"><stop
         id="stop2220"
         style="stop-color:#999999;stop-opacity:1"
         offset="0" /><stop
         id="stop2222"
         style="stop-color:#555555;stop-opacity:1"
         offset="1" /></linearGradient><linearGradient
       x1="272.83774"
       y1="199.51422"
       x2="272.83774"
       y2="655.90527"
       id="linearGradient3885"
       xlink:href="#linearGradient2218"
       gradientUnits="userSpaceOnUse"
       gradientTransform="translate(1.262634e-6,1.711134e-5)" /></defs><path
     d="M 715.31318,211.69987 C 724.31324,220.69992 698.47909,427.7019 680.49666,427.69978 C 662.49513,427.69977 625.31404,409.69966 607.31252,409.69967 C 589.31171,409.69896 553.31149,445.69918 535.31208,463.69858 C 517.31268,481.6994 481.31246,517.69962 481.31317,535.69902 C 481.31316,553.70055 499.31258,589.60814 499.31398,607.604 C 499.31328,625.63593 293.17822,651.84768 285.31165,644.69953 C 274.31119,634.69892 302.5099,427.69836 320.51001,427.69836 C 336.72397,427.69836 373.31038,445.69918 391.3112,445.69847 C 409.31203,445.69776 449.81156,405.19822 463.31164,391.69814 C 472.31169,382.69809 517.31197,337.69781 517.31056,319.6977 C 517.31127,301.69688 499.31046,266.30125 499.30974,246.98379 C 499.31328,228.48517 705.26236,201.64906 715.31318,211.69987 z"
     id="path3870"
     style="opacity:1;fill:url(#linearGradient3885);fill-opacity:1;stroke:#000000;stroke-width:20;stroke-linecap:round;stroke-linejoin:round;stroke-miterlimit:1;stroke-dasharray:none" /></svg>
